X: 12002
T: Éolie
R: reel
M: 4/4
K: Aminor
A3B c3d|e2ef edcB|A^GAB cBAc|d2dc BdcB|
A^GAB cBcd|edef edcB|AB c/B/A dcBc|1 BA^GA A2A2:|2 BA^GB A2=gf||
|:egge c3e|fefg aegf|egge c3e|fd2d dggf|
egge c3e|fefg aegf|ec'ge c'geg|1 fdBd c2gf:|2 fdBd c2 B2||

